X: 1026
T: Who Shat in Grandpa's Hat?
C:Sandy Hofferth
B: jims roots
M:2/2
L:1/8
Q: 1/2=100
K:D
V:1 
fg | "D"ga2 a- abag | ef2 gf2 A2- | A2 d2 fdf2 | "A"ce2 fe2 ef |
"A"g2gf gagf | efgf edcB | ABcB AGFE | "D"F3 (F [A2F2]) ff ||
"D"fa2 a- abag | ef2 gf2 A2- | A2 d2 fdf2 | "A"ce2 fe2 ef |
"A"g2gf gagf | efgf edcB | ABcB AGFE | "D"D3 ED2 FF||
|: "D"FA2A2BAG | FED3DFE | DFED EDEF | "A"G2G6 |
"A"e3e2fed | cBA3AcB | ABcB AGFE | "D"F3F [A2F2]FF |
"D"FA2 A- ABAG | FED3 DFE | DFED EDEF | "A"G2G6 |
"A"e3 e- efed | cBA3 AcB | ABcB AGFE | [1 "D"F3 (F [F2A2])FF:|[2 "D"F3GF4|]
% abcbook-tune_id 6298c29746cf16a25e72fbf8


% abcbook-boost 0
% abcbook-tablature 
% abcbook-transpose 
% abcbook-lastupdated 1654178456927
% abcbook-soundfonts 
% abcbook-repeats 1


